X:24
T:Gavotte
R:gavotte
C:Michael Praetorius
H:XVI eme siecle
O:France
Z:S. Piron
M:4/4
L:1/4
Q:1/4=220
K:G
cBAB|G>ABG|cBAd|G2G2:|
|:GABc|d2d2|e/2f/2gfe|d2d2:||
